src/actions/symbolic/align-horizontal-right-symbolic.svg

<svg width="16" height="16" version="1.1" viewBox="0 0 4.233 4.233" xmlns="http://www.w3.org/2000/svg">
 <path d="m3.7039 0v4.233h-0.26488v-0.529h-2.777c-0.072902 0-0.132-0.059098-0.132-0.132v-1.058c0-0.074 0.06-0.133 0.132-0.133h2.778v-0.264h-1.985c-0.073294 2.1e-6 -0.13256-0.059708-0.132-0.133v-1.058c0-0.073 0.059-0.132 0.132-0.132h1.985v-0.794zm-0.26488 1.058h-1.851v0.794h1.852zm0 1.588h-2.644v0.794h2.645z" fill="#363636"/>
</svg>

<svg xmlns="http://www.w3.org/2000/svg" width="16" height="16" viewBox="0 0 4.233 4.233">
    <path fill="#050505" fill-opacity=".7" d="M3.704 0v4.233h-.265v-.529H.662a.132.132 0 0 1-.132-.132V2.514c0-.074.06-.133.132-.133H3.44v-.264H1.455a.132.132 0 0 1-.132-.133V.926c0-.073.059-.132.132-.132H3.44V0zm-.265 1.058H1.588v.794H3.44zm0 1.588H.795v.794H3.44z"/>
</svg>
